!!!OTL: ALLDORT AUF GRUENEN MATTEN
!!!ARE: Europa, Mitteleuropa, Unter - Oesterreich
!!!SCT: B0172
!!!YEM: Copyright 1995, estate of Helmut Schaffrath.
**kern
*ICvox
*Ivox
*M2/4
*k[b-]
*F:
{8c
=1
8f
8g
8a
8b-
=2
8.cc
16dd
8cc}
{8cc
=3
8ff
8cc
8cc
8dd
=4
4cc
8r}
{8cc
=5
8.cc
16bn
8dd
8bn
=6
8bn
8a
8cc}
{8a
=7
8.a
16g
8bn
8g
=8
4f
8r}
==
!!!AGN: Natur - Lied, Berg
!!!ONB: ESAC (Essen Associative Code) Database: BOEHME
!!!AMT: simple duple
!!!AIN: vox
!!!EED: Helmut Schaffrath
!!!EEV: 1.0
*-
